icons/anticlockwise-line.svg

<svg xmlns="http://www.w3.org/2000/svg" width="24" height="24" fill="none"><g clip-path="url(#a)"><g><path fill="#121212" d="M11 9H21C21.2652 9 21.5196 9.10536 21.7071 9.29289C21.8946 9.48043 22 9.73478 22 10V20C22 20.2652 21.8946 20.5196 21.7071 20.7071C21.5196 20.8946 21.2652 21 21 21H11C10.7348 21 10.4804 20.8946 10.2929 20.7071C10.1054 20.5196 10 20.2652 10 20V10C10 9.73478 10.1054 9.48043 10.2929 9.29289C10.4804 9.10536 10.7348 9 11 9ZM12 11V19H20V11H12ZM6 10.586L7.828 8.757L9.243 10.172L5 14.414L0.757004 10.172L2.172 8.757L4 10.586V8C4 6.67392 4.52679 5.40215 5.46447 4.46447C6.40215 3.52678 7.67392 3 9 3H13V5H9C8.20435 5 7.44129 5.31607 6.87868 5.87868C6.31607 6.44129 6 7.20435 6 8V10.586Z"/></g></g><defs><clipPath id="a"><rect width="24" height="24" fill="white"/></clipPath></defs></svg>

<svg width="24" height="24" fill="none" xmlns="http://www.w3.org/2000/svg"><g clip-path="url(#a)"><path d="M11 9h10a1 1 0 0 1 1 1v10a1 1 0 0 1-1 1H11a1 1 0 0 1-1-1V10a1 1 0 0 1 1-1Zm1 2v8h8v-8h-8Zm-6-.414 1.828-1.829 1.415 1.415L5 14.414.757 10.172l1.415-1.415L4 10.586V8a5 5 0 0 1 5-5h4v2H9a3 3 0 0 0-3 3v2.586Z" /></g><defs><clipPath id="a"><path fill="#fff" d="M0 0h24v24H0z"/></clipPath></defs></svg>
